X: 8166
T: Coolderry Bridge
R: reel
M: 4/4
K: Dmajor
FE|:DA,A,2 DEFB|BAFA dcdf|feef eBBA|G2FG EGFE|
DA,A,2 DEFB|BAFA dcdB|AFdF AFBF|1 AFEG FDDE:|2 AFEG FDDg||
|:fdd2 BdAd|Bdef afgf|feef eBBA|G2FG Eage|
fdd2 Add2|gfed BdAB|AFdF AFBF|1 AFEG FDDg:|2 AFEG FDD2||

